X:1
T:Clair de Lune
T:Clair de Lune
T:Calude Debussy
C:Calude Debussy
%%score { ( 1 3 ) | ( 2 4 ) }
L:1/8
Q:3/8=46
M:9/8
K:C
V:1 treble nm="Piano" snm="Pno."
V:3 treble 
V:2 treble 
V:4 treble 
V:1
"^Largo""_p" z z ([eg]- [eg]3 [ce]3- | [ce][Bd][ce] [Bd]6- | [Bd])(([Ac][Bd] (2:3:2ce- (2:3:2ec- | %3
 [Ac][GB][Ac] [GB-]6 | F6)) F3 | D6 D3 | C6- C3 | A,6 G,3 | z z (G [eg]3 [ce]3- | [ce]de d6- | %10
 d)(cd [cg]3 [ce]3- | [ce]de d3 c3) |"_mp" z (CD [CEA]3 [CE]3) | z (FG [FAc]3 [FA]3) | %14
 z (AB [GBe]3 [FG]3) |"_p"!>(! [eg]6-!>)! [eg]3 |"_pp" [eg]6 z2 z |] %17
V:2
 z [EG]2- [EG]6 | [F_A]6- [FA]3 | [EG]6- [EG]3 | [DF]6- [DF]3 | [CD]6 [B,D]3 | [A,C]6 [_A,B,]3 | %6
[K:bass] [G,=A,]6 [F,A,]3 | [E,G,]6 [G,,F,]3 | C,3- C,6 | [F,A,]6- [F,A,]3 | [E,G,]6- [E,G,]3 | %11
 [F,A,]6- [F,A,]3 | [E,G,]6- [E,G,]3 | [D,F,]6- [D,F,]3 | [G,,D,F,]6 G,,3 | C,,2 G,, C,3 G,3 | %16
 C6 z2 z |] %17
V:3
 x9 | x9 | x3 A6- | x9 | B(AB AdA GAG- | GFG F3 E3- | (E)!<(!EF EAE DED- | DCD C3 B,3)!<)! | x9 | %9
 x A2- A6 | x9 | x A2- A6 | x9 | x9 | x9 | x9 | x9 |] %17
V:4
 x9 | x9 | x9 | x9 | x9 | x9 |[K:bass] x9 | x9 | z E,-[E,G,]- [E,G,]6 | x9 | x9 | x9 | x9 | x9 | %14
 x9 | x9 | x9 |] %17

